X:7
T:Dale Gillis' Visit to Images
R:reel
C:Andrea Beaton
D:Andrea Beaton, Cuts
Z:Paul Stewart Cranford (P.S.C.), <http://www.cranfordpub.com>
L:1/8
M:C|
Q:333
K:Bdor
A|B3 f eAcA|Bcde fBBc|A/A/A ec ecce|fddf edcA|
B/B/B Bf eAcA|Bcde fBBf|efed ceae|dfec B/B/B B:|
|:c|d3 f ecce|fddf abaf|ec c/c/c fddf|efaf eAAc|
d/d/d df ecce|fddf abaf|efed ceae|dfec B/B/B B:|
